!!!COM:	Bach, Johann Sebastian
!!!CDT:	1685/02/21/-1750/07/28/
!!!OTL@@DE:	Ach bleib bei uns, Herr Jesu Christ
!!!SCT:	BWV 253
!!!PC#:	177
!!!ONB: Related to chorale 148 (BWV 414)
!!!hymn: Leipzig, 1589
!!!AGN:	chorale
**kern	**kern	**kern	**kern
*ICvox	*ICvox	*ICvox	*ICvox
*Ibass	*Itenor	*Ialto	*Isoprn
*I"Bass	*I"Tenor	*I"Alto	*I"Soprano
*	*oclefC4	*oclefC3	*oclefC1
*clefF4	*clefGv2	*clefG2	*clefG2
*k[f#c#g#]	*k[f#c#g#]	*k[f#c#g#]	*k[f#c#g#]
*A:	*A:	*A:	*A:
*M4/4	*M4/4	*M4/4	*M4/4
*met(c)	*met(c)	*met(c)	*met(c)
*MM100	*MM100	*MM100	*MM100
4AA	4e	4a	4cc#
=1	=1	=1	=1
4A	4e	4a	8cc#L
.	.	.	8ddJ
4G#	4e	4b	4ee
4A	4e	4a	4cc#
4F#	8eL	4a	4a
.	8dJ	.	.
=2	=2	=2	=2
4G	4d	8gL	4b
.	.	8f#J	.
4A	4A	4e	4cc#
4D;	4A;	4f#;	4dd;
4AA	4A	4e	4cc#
=3	=3	=3	=3
4E	4G#	8eL	4b
.	.	8dJ	.
8F#L	4A	4c#	4a
8EJ	.	.	.
8DL	2d	2f#	4.a
8E	.	.	.
8F#	.	.	.
8G#J	.	.	8b
=4	=4	=4	=4
4A	8c#L	4e	4cc#
.	8BJ	.	.
8C#L	4A	4e	4cc#
8DJ	.	.	.
4E	4A	4.e	8bL
.	.	.	8aJ
4E	4G#	.	4b
.	.	8d	.
=5	=5	=5	=5
2.AA;	2.E;	2.c#;	2.a;
4AA	4e	4a	4cc#
=6	=6	=6	=6
4E	8eL	4g#	4b
.	8dJ	.	.
4E#	4c#	4g#	4cc#
4F#	4c#	8f#L	4a
.	.	8enXJ	.
8BL	4B	4d#	4f#
8AJ	.	.	.
=7	=7	=7	=7
4G#	4B	4.e	4g#
4F#	4A	.	4a
.	.	8d#	.
4EnX;	4G#;	4e;	4b;
4C#	4G#	4e#	4cc#
=8	=8	=8	=8
8F#L	4A	4c#	4a
8E	.	.	.
8F#	4dnX	4f#	4a
8G#J	.	.	.
8AL	8c#L	4e	4.a
8B	8d	.	.
8A	8c#	8f#L	.
8G#J	8BJ	8g#J	8b
=9	=9	=9	=9
8F#L	4A	4a	4cc#
8C#J	.	.	.
4D	4A	4e	4cc#
4E	4A	4.e	8bL
.	.	.	8aJ
4E	4G#	.	4b
.	.	8d	.
=10	=10	=10	=10
2.AA;	2.E;	2.c#;	2.a;
==	==	==	==
*-	*-	*-	*-
!!!YOR1: 371 vierstimmige Choralges&auml;nge von Johann Sebastian Bach, 
!!!YOR2: 4th ed. by Alfred D&ouml;rffel (Leipzig: Breitkopf und H&auml;rtel, 
!!!YOR2: c.1875). 178 pp. Plate "V.A.10".  reprint: J.S. Bach, 371 Four-Part 
!!!YOR4: Chorales (New York: Associated Music Publishers, Inc., c.1940).
!!!SMS: B&H, 4th ed, Alfred D&ouml;rffel, c.1875, plate V.A.10
!!!PC#2: 1 (Budapest/Imre, 1982)
!!!EED:  Craig Stuart Sapp
!!!EEV:  2009/05/22
